src/assets/filled/Radar.svg

<svg width="24" height="24" viewBox="0 0 24 24"  xmlns="http://www.w3.org/2000/svg">
<path d="M12.0001 14.3801C13.3146 14.3801 14.3801 13.3146 14.3801 12.0001C14.3801 10.6857 13.3146 9.62012 12.0001 9.62012C10.6857 9.62012 9.62012 10.6857 9.62012 12.0001C9.62012 13.3146 10.6857 14.3801 12.0001 14.3801Z" />
<path d="M20 18.7498C19.84 18.7498 19.69 18.6998 19.55 18.5998C19.22 18.3498 19.15 17.8798 19.4 17.5498C20.61 15.9398 21.25 14.0198 21.25 11.9998C21.25 9.97978 20.61 8.05978 19.4 6.44978C19.15 6.11978 19.22 5.64978 19.55 5.39978C19.88 5.14978 20.35 5.21978 20.6 5.54978C22.01 7.41978 22.75 9.64978 22.75 11.9998C22.75 14.3498 22.01 16.5798 20.6 18.4498C20.45 18.6498 20.23 18.7498 20 18.7498Z" />
<path d="M4 18.7498C3.77 18.7498 3.55 18.6498 3.4 18.4498C1.99 16.5798 1.25 14.3498 1.25 11.9998C1.25 9.64978 1.99 7.41978 3.4 5.54978C3.65 5.21978 4.12 5.14978 4.45 5.39978C4.78 5.64978 4.85 6.11978 4.6 6.44978C3.39 8.05978 2.75 9.97978 2.75 11.9998C2.75 14.0198 3.39 15.9398 4.6 17.5498C4.85 17.8798 4.78 18.3498 4.45 18.5998C4.32 18.6998 4.16 18.7498 4 18.7498Z" />
<path d="M16.8001 16.3502C16.6401 16.3502 16.4901 16.3002 16.3501 16.2002C16.0201 15.9502 15.9501 15.4802 16.2001 15.1502C16.8901 14.2402 17.2501 13.1502 17.2501 12.0002C17.2501 10.8502 16.8901 9.76018 16.2001 8.85018C15.9501 8.52018 16.0201 8.05018 16.3501 7.80018C16.6801 7.55018 17.1501 7.62017 17.4001 7.95017C18.2801 9.13017 18.7501 10.5302 18.7501 12.0002C18.7501 13.4702 18.2801 14.8802 17.4001 16.0502C17.2501 16.2502 17.0301 16.3502 16.8001 16.3502Z" />
<path d="M7.2 16.3502C6.97 16.3502 6.75 16.2502 6.6 16.0502C5.72 14.8802 5.25 13.4702 5.25 12.0002C5.25 10.5302 5.72 9.12017 6.6 7.95017C6.85 7.62017 7.32 7.55018 7.65 7.80018C7.98 8.05018 8.05 8.52018 7.8 8.85018C7.11 9.76018 6.75 10.8502 6.75 12.0002C6.75 13.1502 7.11 14.2402 7.8 15.1502C8.05 15.4802 7.98 15.9502 7.65 16.2002C7.52 16.3002 7.36 16.3502 7.2 16.3502Z" />
</svg>

<?xml version="1.0" encoding="UTF-8"?>
<svg width="24" height="24" viewBox="0 0 24 24" xmlns="http://www.w3.org/2000/svg">
 <path d="m12 14.38c1.3145 0 2.38-1.0655 2.38-2.38 0-1.3144-1.0655-2.38-2.38-2.38-1.3144 0-2.38 1.0656-2.38 2.38 0 1.3145 1.0656 2.38 2.38 2.38z"/>
 <path d="m20 18.75c-0.16 0-0.31-0.05-0.45-0.15-0.33-0.25-0.4-0.72-0.15-1.05 1.21-1.61 1.85-3.53 1.85-5.55 0-2.02-0.64-3.94-1.85-5.55-0.25-0.33-0.18-0.8 0.15-1.05s0.8-0.18 1.05 0.15c1.41 1.87 2.15 4.1 2.15 6.45 0 2.35-0.74 4.58-2.15 6.45-0.15 0.2-0.37 0.3-0.6 0.3z"/>
 <path d="m4 18.75c-0.23 0-0.45-0.1-0.6-0.3-1.41-1.87-2.15-4.1-2.15-6.45 0-2.35 0.74-4.58 2.15-6.45 0.25-0.33 0.72-0.4 1.05-0.15s0.4 0.72 0.15 1.05c-1.21 1.61-1.85 3.53-1.85 5.55 0 2.02 0.64 3.94 1.85 5.55 0.25 0.33 0.18 0.8-0.15 1.05-0.13 0.1-0.29 0.15-0.45 0.15z"/>
 <path d="m16.8 16.35c-0.16 0-0.31-0.05-0.45-0.15-0.33-0.25-0.4-0.72-0.15-1.05 0.69-0.91 1.05-2 1.05-3.15s-0.36-2.24-1.05-3.15c-0.25-0.33-0.18-0.8 0.15-1.05s0.8-0.18001 1.05 0.14999c0.88 1.18 1.35 2.58 1.35 4.05s-0.47 2.88-1.35 4.05c-0.15 0.2-0.37 0.3-0.6 0.3z"/>
 <path d="m7.2 16.35c-0.23 0-0.45-0.1-0.6-0.3-0.88-1.17-1.35-2.58-1.35-4.05s0.47-2.88 1.35-4.05c0.25-0.33 0.72-0.39999 1.05-0.14999s0.4 0.72 0.15 1.05c-0.69 0.91-1.05 2-1.05 3.15s0.36 2.24 1.05 3.15c0.25 0.33 0.18 0.8-0.15 1.05-0.13 0.1-0.29 0.15-0.45 0.15z"/>
</svg>
